packages/tokens/icons/speechBubble/size16Px.svg

<svg viewBox="0 0 16 16" fill="none" xmlns="http://www.w3.org/2000/svg" width="1em" height="1em"><path d="M13.5 5V2.5C13.5 1.94772 13.0523 1.5 12.5 1.5L2.5 1.5C1.94772 1.5 1.5 1.94772 1.5 2.5L1.5 9.79289C1.5 10.1834 1.81658 10.5 2.20711 10.5V10.5C2.39464 10.5 2.5745 10.4255 2.70711 10.2929L3.20711 9.79289C3.39464 9.60536 3.649 9.5 3.91421 9.5H4.5" stroke="currentColor" stroke-linecap="round" stroke-linejoin="round"/><path d="M14.5 8.5L14.5 13.882C14.5 14.2233 14.2233 14.5 13.882 14.5C13.6479 14.5 13.4339 14.3677 13.3292 14.1584L13.25 14C13.0968 13.6936 12.7836 13.5 12.441 13.5H7.5C6.94772 13.5 6.5 13.0523 6.5 12.5V8.5C6.5 7.94772 6.94772 7.5 7.5 7.5L13.5 7.5C14.0523 7.5 14.5 7.94772 14.5 8.5Z" stroke="currentColor" stroke-linecap="round" stroke-linejoin="round"/></svg>

<svg xmlns="http://www.w3.org/2000/svg" fill="none" viewBox="0 0 16 16" width="1em" height="1em"><path stroke="currentColor" stroke-linecap="round" stroke-linejoin="round" d="M13.5 5V2.5a1 1 0 0 0-1-1h-10a1 1 0 0 0-1 1v7.293c0 .39.317.707.707.707v0a.707.707 0 0 0 .5-.207l.5-.5a1 1 0 0 1 .707-.293H4.5"/><path stroke="currentColor" stroke-linecap="round" stroke-linejoin="round" d="M14.5 8.5v5.382a.618.618 0 0 1-1.17.276L13.25 14a.905.905 0 0 0-.809-.5H7.5a1 1 0 0 1-1-1v-4a1 1 0 0 1 1-1h6a1 1 0 0 1 1 1Z"/></svg>
